X:425
T: "Der Schlemmer"
N: Z1105
O: Europa, Mitteleuropa, Deutschland, Sachsen
R: Romanze, Ballade
M: 4/4
L: 1/8
K: G
D2 | D3GG3B | B4d2
d2 | d2c2A2A2 | B2BAB2
D2 | D3GG3B | B4d2
d2 | d2c2A2F2 | G4z2
d2 | d2c2A2F2 | G2B2d2
d2 | d2c2A2F2 | G2B2d2
G2 | G3BB3d | d4B2
d2 | d2c2A2F2 | G4z2

@@@ Tune index: 10183
